X: 1962
T:Marian. WM019
M:4/4
L:1/8
Q:200
S:Wm.Mittell,1799
R:Reel
O:England
A:Kent
N:These words should be in the words box but this tune can't find one!
N:HayContrary Sides,Then on your own sides hands up quite round, load
N:thus() the third couple, cast up, load thus top couple and cast off
Z:C.G.P
K:G
D|GBdB gdBG|AcBAB2GD|GBdB gdBG|AcBAG3:|!
|:d|gaef gdBG|gaefg2G2|gaef gdBG|cedcB2G:|]
